X:1
T:Vertrauen
T:Julius Otto
T:C. Sternau
T:Vertrauen
T:(Gebet)
T:CPDL   —   Creative Commons Attribution Non Commercial 3.0
T:CPDL   —   Creative Commons Attribution Non Commercial 3.0
T:CPDL   —   Creative Commons Attribution Non Commercial 3.0
T:CPDL   —   Creative Commons Attribution Non Commercial 3.0
C:Julius Otto
Z:C. Sternau
Z:CPDL   —   Creative Commons Attribution Non Commercial 3.0
%%score [ ( 1 2 ) 3 4 ]
L:1/8
Q:1/4=80
M:4/4
K:Eb
V:1 treble nm="Sopran\nAlt"
V:2 treble 
V:3 treble-8 nm="Tenor"
V:4 bass nm="Bass"
V:1
"^Andante"!p!"^Solo" B2 | B3!<(! B e2!<)! d2 |!>(! (d2 c2)!>)! B2 z!p! B |!<(! c3 =B!<)! c_B AG | %4
w: 1.  Es|weht durch eu- ren|Frie- * den, ihr|schö- nen Er- * den- *|
w: 2.  Es|winkt von Him- mels-|hö- * hen so|man- cher Stern _ uns _|
!>(! (G2 F2)!>)! z2!p! F2 | G3!<(! G =A2 A2!<)! | B4 c2!f! ^c2 | (de/d/ c)d e2 =A2 | B4 z2!p! B2 | %9
w: gau'n, _ du|Got- tes- welt hie-|nie- den, ein|se- * * * li- ges Ver-|trau'n; es|
w: zu: _ Hier,|wo wir leuch- tend|ge- hen, da|wan- * * * delst bald auch|du; es|
 B3!<(! B e2!<)! d2 | (d2!>(! c2) B2!>)! z!p! B |!<(! c3 =B!<)! c_B AG |!>(! (G2 F2)!>)! z2 F2 | %13
w: weht durch eu- ren|Frie- * den, ihr|schö- nen Er- * den- *|gau'n, _ du|
w: winkt von Him- mels-|hö- * hen so|man- cher Stern _ uns _|zu: _ Hier,|
 G3!<(! G A2!<)! B2 |!>(! =Bc c2!>)! z2!mf! c2 |"^cresc." c3 c f2 e2 |!>(! e2 d2!>)! z2!p! B2 | %17
w: Got- tes- welt hie-|nie- * den, du|Got- tes- welt hie-|nie- den, ein|
w: wo wir leuch- tend|ge- * hen, auf|sel'- ger Hei- mat|Hö- hen, da|
 B2"^cresc." e2 d2 _d2 |!<(! (c2 ed!<)! fe) dc |!mf! B3"^dim." B B2!p! D2 | E4 z2 |!f! G2 | %22
w: se- li- ges Ver-|trau'n, _ _ _ _ ein _|se- li- ges Ver-|trau'n.|Wer|
w: wan- delst bald auch|du, _ _ _ _ da *|wan- delst bald auch|du.|Trag'|
 !>!e3 e d2 c2 |!>(! c2 =B2!>)! z2!f! G2 | !>!e3 e!>(! d2 c2 | !breath!=B4!>)!!p! _B4 | %26
w: wei- nend sucht auf|Er- den des|Glü- ckes gold'- ne|Ruh', der|
w: mu- tig dei- ne|Bür- de dem|na- hen Zie- le|zu, es|
 B2 c_d e2 d2 | _d2 c2 z2"^cresc." c2 | c2 =de f2 e2 | e2 d2 z2!mf! B2 | e2!mf! d2 c2 B2 | A6 F2 | %32
w: deckt sich * still ver-|trau- end, der|deckt sich * still ver-|trau- end 1. mit|eu- rem Frie- den|zu, mit|
w: führt zu * höh'- rer|Wür- de, es|führt zu * höh'- rer|Wür- de, 2.zur|stil- len Frie- dens-|ruh', zur|
 B4 _d4 | c4 (f3 e) |!>(! !fermata!d8!>)! | z2!pp!!<(! d2 d2!<)! d2 | e4!>(! =B4 | %37
w: eu- rem|Frie- den _|zu,|mit eu- rem|Frie- den|
w: stil- len|Frie- dens- *|ruh',|zur stil- len|Frie- dens-|
 !breath!c2!>)!!pp! c2 _B2 A2 | G4 (F3 E) | E2"^cresc." E2 E2 E2 |!<(! E4 A4!<)! | %41
w: zu, mit eu- rem|Frie- den _|zu, mit eu- rem|Frie- den|
w: ruh', zur stil- len|Frie- dens- *|ruh', zur stil- len|Frie- dens-|
!>(! !fermata!G6!>)! |] %42
w: zu.|
w: ruh'.|
V:2
 G2 | G3 G G2 B2 | (B2 A2) G2 x G | A3 G AG FE | (E2 D2) x2 D2 | E3 G ^F2 F2 | G4 G2 G2 | %7
w: |||||||
w: |||||||
 F3 F F2 F2 | F4 x2 F2 | E3 E G2 G2 | E4 E2 x G | A3 G AG FE | (E2 D2) x2 D2 | E3 E F2 G2 | %14
w: |||||||
w: |||||||
 GA A2 x2 E2 | F3 F =A2 A2 | _A2 A2 x2 A2 | G2 E2 F2 G2 | A6 E2 | E3 E D2 B,2 | B,4 x2 | G2 | %22
w: ||||||||
w: ||||||||
 G3 G F2 E2 | E2 D2 x2 G2 | G3 G F2 E2 | D4 D4 | E2 E2 E2 E2 | E2 E2 x2 =E2 | F2 F2 F2 G=A | %29
w: |||||||
w: |||||||
 B2 F2 z4 | z2 E2 A2 G2 | F6 D2 | E4 B4 | A4 A4 | A8 | x2 A2 A2 A2 | G4 F4 | E2 A2 G2 F2 | %38
w: |mit eu- rem|Frie- den,|eu- rem|Frie- den|zu,||||
w: |zur stil- len|Ruh', zur|stil- len|Frie- dens-|ruh',||||
 E4 (D3 E) | E2 E2 E2 E2 | E4 E4 | E6 |] %42
w: ||||
w: ||||
V:3
!p! B2 | B3!<(! B B2!<)! G2 |!>(! ABcd!>)! e2 z!p! e |!<(! e3 e!<)! e2 c2 |!>(! B4!>)! z2!p! B2 | %5
w: Es|weht durch eu- ren|Frie- * * * den, ihr|schö- nen Er- den-|gau'n, du|
w: Es|winkt von Him- mels-|hö- * * * hen so|man- cher Stern uns|zu: Hier,|
 B3!<(! B d2 d2!<)! | d4 e2!f! B2 | (Bc/B/ =A)B c2 e2 | d2!p! B2 B2 _A2 | G3!<(! G B2!<)! B2 | %10
w: Got- tes- welt hie-|nie- den, ein|se- * * * li- ges Ver-|trau'n; es weht, es|weht durch eu- ren|
w: wo wir leuch- tend|ge- hen, da|wan- * * * delst bald auch|du; es winkt, es|winkt von Him- mels-|
 (B2!>(! A2) G2!>)! z!p! e |!<(! e3 e!<)! e2 c2 |!>(! B4!>)! z2 B2 | B3!<(! e e2!<)! e2 | %14
w: Frie- * den, ihr|schö- nen Er- den-|gau'n, du|Got- tes- welt hie-|
w: hö- * hen so|man- cher Stern uns|zu: Hier,|wo wir leuch- tend|
!>(! e2 e2!>)! z2!mf! A2 |"^cresc." =A3 A c2 f2 |!>(! f2 f2!>)! z2!p! f2 | e2"^cresc." G2 A2 B2 | %18
w: nie- den, du|Got- tes- welt hie-|nie- den, ein|se- li- ges Ver-|
w: ge- hen, auf|sel'- ger Hei- mat|Hö- hen, da|wan- delst bald auch|
!<(! (A2 c=B!<)! dc) _BA |!mf! G3"^dim." G F2!p! A2 | G4 z2 |!f! G2 | !>!c3 G A2 =A2 | %23
w: trau'n, _ _ _ _ ein _|se- li- ges Ver-|trau'n.|Wer|wei- nend sucht auf|
w: du, _ _ _ _ da *|wan- delst bald auch|du.|Trag'|mu- tig dei- ne|
!>(! G2 G2!>)! z2!f! G2 | !>!c3 G!>(! A2 =A2 | (=B2 !breath!G2)!>)!!p! _A4 | G2 AB c2 B2 | %27
w: Er- den des|Glü- ckes gold'- ne|Ruh', _ der|deckt sich _ still ver-|
w: Bür- de dem|na- hen Zie- le|zu, _ es|führt zu _ höh'- rer|
 B2 A2 z2"^cresc." B2 | =A2 Bc d2 c2 | c2 B2 z4 | z4 z2!mf! c2 | f2 e2 d2 B2 | B4 e4 | e4 e4 | %34
w: trau- end, der|deckt sich _ still ver-|trau- end|mit|eu- rem Frie- den,|eu- rem|Frie- den|
w: Wür- de, es|führt zu _ höh'- rer|Wür- de,|zur|stil- len Ruh', zur|stil- len|Frie- dens-|
!>(! !fermata!f8!>)! | z2!pp!!<(! f2 f2!<)! f2 | e4!>(! d4 | !breath!c2!>)!!pp! A2 B2 c2 | %38
w: zu,|mit eu- rem|Frie- den|zu, mit eu- rem|
w: ruh',|zur stil- len|Frie- dens-|ruh', zur stil- len|
 B4 (A3 G) | G2"^cresc." E2 E2 E2 |!<(! A4 c4!<)! |!>(! !fermata!B6!>)! |] %42
w: Frie- den _|zu, mit eu- rem|Frie- den|zu.|
w: Frie- dens- *|ruh', zur stil- len|Frie- dens-|ruh'.|
V:4
!p! E,2 | E,3!<(! E, E,2!<)! E,2 |!>(! E,4!>)! E,2 z!p! E, |!<(! A,3 A,!<)! A,,2 A,,=A,, | %4
w: ||||
w: ||||
!>(! B,,4!>)! z2!p! B,,2 | E,3!<(! E, D,2 D,2!<)! | G,4 E,2!f! =E,2 | F,3 F, F,2 F,2 | %8
w: ||||
w: ||||
 B,,4 z2!p! D,2 | E,3!<(! E, E,2!<)! E,2 | (A,,2!>(! C,2) E,2!>)! z!p! E, | %11
w: |||
w: |||
!<(! A,3 A,!<)! A,,2 A,,=A,, |!>(! B,,4!>)! z2 B,,2 | E,3!<(! E, E,2!<)! E,2 | %14
w: |||
w: |||
!>(! A,2 A,,2!>)! z2!mf! A,2 |"^cresc." F,3 F, F,2 F,2 |!>(! B,2 B,,2!>)! z2!p! D,2 | %17
w: |||
w: |||
 E,2"^cresc." E,2 E,2 E,2 |!<(! A,,6!<)! A,,2 |!mf! B,,3"^dim." B,, B,,2!p! B,,2 | E,4 z2 | %21
w: ||||
w: ||||
!f! G,2 | C,3 C, F,2 ^F,2 |!>(! G,2 G,,2!>)! z2!f! G,2 | C,3 C,!>(! F,2 ^F,2 | %25
w: ||||
w: ||||
 !breath!G,4!>)!!p! =F,4 | E,6 E,2 | A,,2 C,E, A,2"^cresc." _G,2 | F,2 F,2 F,2 F,2 | B,,2 B,,2 z4 | %30
w: * der|deckt, der|deckt sich _ still ver-|trau- end, still ver-|trau- end|
w: * es|führt, es|führt zu _ höh'- rer|Wür- de, höh'- rer|Wür- de,|
 z8 | z2!mf! F,2 B,2 A,2 | G,4 G,4 | A,4 _C4 |!>(! !fermata!B,8!>)! | z2!pp!!<(! B,2 B,2!<)! =B,2 | %36
w: |mit eu- rem,|eu- rem|Frie- den|zu,||
w: |zur stil- len,|stil- len|Frie- dens-|ruh',||
 C4!>(! G,4 | !breath!A,2!>)!!pp! F,2 G,2 A,2 | B,4 (B,,3 E,) | E,2"^cresc." E,2 E,2 E,2 | %40
w: ||||
w: ||||
!<(! C,4 A,,4!<)! |!>(! !fermata![E,,E,]6!>)! |] %42
w: ||
w: ||

